kora-light/actions/symbolic/view-continuous-symbolic.svg

<svg clip-rule="evenodd" fill-rule="evenodd" stroke-linejoin="round" stroke-miterlimit="2" viewBox="0 0 16 16" xmlns="http://www.w3.org/2000/svg">
 <g transform="scale(-1 1)" fill="#444" fill-rule="nonzero">
  <path d="m-12 10h8v2h-8z" fill-opacity=".3"/>
  <path d="m-12 4h8v2h-8z" fill-opacity=".3"/>
  <path d="m-14 7h12v2h-12z"/>
  <g fill-opacity=".3">
   <path d="m-10 13h4v1h-4z"/>
   <path d="m-10 2h4v1h-4z"/>
  </g>
 </g>
</svg>

<svg xmlns="http://www.w3.org/2000/svg" width="16" height="16" version="1.1">
 <path style="opacity:0.3;fill:#444444" d="M -12,10 H -4 V 12 H -12 Z" transform="scale(-1,1)"/>
 <path style="opacity:0.3;fill:#444444" d="M -12,4 H -4 V 6 H -12 Z" transform="scale(-1,1)"/>
 <path style="fill:#444444" d="M -14,7 H -2 V 9 H -14 Z" transform="scale(-1,1)"/>
 <path style="opacity:0.3;fill:#444444" d="M -10,13 H -6 V 14 H -10 Z" transform="scale(-1,1)"/>
 <path style="opacity:0.3;fill:#444444" d="M -10,2 H -6 V 3 H -10 Z" transform="scale(-1,1)"/>
</svg>
